usr/share/icons/biglinux-icons-material/scalable/apps/ktuberling.svg

<?xml version="1.0" encoding="UTF-8" standalone="no"?>
<svg
   width="24"
   height="24"
   viewBox="0 0 6.349875 6.349875"
   version="1.1"
   id="svg24346"
   sodipodi:docname="ktuberling.svg"
   xml:space="preserve"
   inkscape:version="1.2.2 (b0a8486541, 2022-12-01)"
   xmlns:inkscape="http://www.inkscape.org/namespaces/inkscape"
   xmlns:sodipodi="http://sodipodi.sourceforge.net/DTD/sodipodi-0.dtd"
   xmlns="http://www.w3.org/2000/svg"
   xmlns:svg="http://www.w3.org/2000/svg"><sodipodi:namedview
     id="namedview24348"
     pagecolor="#ffffff"
     bordercolor="#000000"
     borderopacity="0.25"
     inkscape:showpageshadow="2"
     inkscape:pageopacity="0.0"
     inkscape:pagecheckerboard="0"
     inkscape:deskcolor="#d1d1d1"
     showgrid="false"
     inkscape:zoom="6.828125"
     inkscape:cx="-11.423341"
     inkscape:cy="39.102975"
     inkscape:window-width="2560"
     inkscape:window-height="998"
     inkscape:window-x="1680"
     inkscape:window-y="0"
     inkscape:window-maximized="1"
     inkscape:current-layer="svg24346" /><defs
     id="defs24330"><radialGradient
       id="a"
       cx="24"
       cy="24"
       r="15"
       gradientTransform="matrix(0.13229697,0,0,0.12347973,-1.2194048e-4,0.21157733)"
       gradientUnits="userSpaceOnUse"><stop
         stop-color="#f2bc4e"
         offset="0"
         id="stop24325" /><stop
         stop-color="#f1b741"
         offset="1"
         id="stop24327" /></radialGradient><radialGradient
       id="paint0_radial_24_2"
       cx="0"
       cy="0"
       r="1"
       gradientUnits="userSpaceOnUse"
       gradientTransform="matrix(0,5.8207237,-5.8207237,0,19.049621,0.2645789)"><stop
         stop-color="#7286F2"
         id="stop25340"
         offset="0"
         style="stop-color:#a3c3ee;stop-opacity:1;" /><stop
         offset="1"
         stop-color="#4A5ECA"
         id="stop25342"
         style="stop-color:#5f8fd3;stop-opacity:1;" /></radialGradient><radialGradient
       fx="0"
       fy="0"
       cx="0"
       cy="0"
       r="1"
       gradientUnits="userSpaceOnUse"
       gradientTransform="matrix(0,16.500014,-16.500014,0,8.999999,0.750002)"
       spreadMethod="pad"
       id="radialGradient960"><stop
         style="stop-opacity:1;stop-color:#a3c3ee"
         offset="0"
         id="stop956" /><stop
         style="stop-opacity:1;stop-color:#5f8fd3"
         offset="1"
         id="stop958" /></radialGradient><clipPath
       clipPathUnits="userSpaceOnUse"
       id="clipPath970"><path
         d="M 0,0 H 19 V 19 H 0 Z"
         id="path968" /></clipPath><radialGradient
       fx="0"
       fy="0"
       cx="0"
       cy="0"
       r="1"
       gradientUnits="userSpaceOnUse"
       gradientTransform="matrix(0,16.500014,-16.500014,0,8.999999,0.750002)"
       spreadMethod="pad"
       id="radialGradient960-3"><stop
         style="stop-opacity:1;stop-color:#a3c3ee"
         offset="0"
         id="stop956-6" /><stop
         style="stop-opacity:1;stop-color:#5f8fd3"
         offset="1"
         id="stop958-7" /></radialGradient><clipPath
       clipPathUnits="userSpaceOnUse"
       id="clipPath970-5"><path
         d="M 0,0 H 19 V 19 H 0 Z"
         id="path968-3" /></clipPath></defs><g
     id="g946"
     transform="matrix(0.35277082,0,0,0.35277082,-1.1961624e-4,-9.2306512e-6)"><g
       id="g948"><g
         id="g954"><path
           d="m 7.195,0.836 c 0.09,0 0.176,-0.012 0.258,-0.035 1.078,-0.071 2.156,-0.067 3.231,0.008 0.976,0.078 1.921,0.289 2.836,0.636 1.519,0.625 2.558,1.711 3.121,3.254 0.316,0.93 0.507,1.887 0.566,2.867 0.078,1.235 0.051,2.465 -0.086,3.696 -0.105,0.863 -0.328,1.691 -0.672,2.488 -0.637,1.383 -1.672,2.336 -3.101,2.859 C 12.191,17 11,17.207 9.773,17.227 8.398,17.301 7.035,17.195 5.684,16.918 3.203,16.367 1.668,14.852 1.09,12.375 0.844,11.262 0.73,10.133 0.754,8.992 0.727,7.777 0.855,6.582 1.141,5.402 1.75,3.09 3.219,1.656 5.547,1.102 6.09,0.969 6.641,0.879 7.195,0.836 Z"
           style="fill:url(#radialGradient960-3);fill-rule:evenodd;stroke:none"
           id="path962" /></g></g></g><ellipse
     cx="3.1749375"
     cy="3.1749375"
     rx="1.9845184"
     ry="1.8520468"
     fill="url(#a)"
     id="ellipse24334"
     style="fill:url(#a);stroke-width:0.425954" /><path
     d="M 2.6084188,2.9001973 C 2.6927576,3.2984641 2.6395134,3.6477461 2.4026831,3.6980087 2.1654269,3.7486972 1.9763034,3.4513815 1.8919646,3.0531147 1.8080517,2.654848 1.8468135,2.3085476 2.0981262,2.2553034 2.3494389,2.2012072 2.5240799,2.5015046 2.6084188,2.9001973 Z"
     fill="#f2f2f2"
     id="path24336"
     style="stroke-width:0.425954" /><path
     d="M 4.7624668,3.8364437 C 3.8364434,5.0734133 1.9843965,4.7411694 1.5874076,3.704398 2.5134311,4.3654782 3.8364434,4.3011592 4.7624668,3.8364437 Z"
     fill="#ba6616"
     id="path24338"
     style="stroke-width:0.425954" /><path
     d="M 3.7414557,2.9001973 C 3.6571169,3.2984641 3.7103611,3.6477461 3.9471914,3.6980087 4.1844476,3.7486972 4.3735711,3.4513815 4.4579099,3.0531147 4.5418228,2.654848 4.503061,2.3085476 4.2517483,2.2553034 4.0004356,2.2012072 3.8257946,2.5015046 3.7414557,2.9001973 Z"
     fill="#f2f2f2"
     id="path24340"
     style="stroke-width:0.425954" /><path
     d="M 2.5215242,3.059504 C 2.5777501,3.3133725 2.54197,3.5357203 2.3843671,3.5676668 2.2267642,3.6000393 2.100256,3.4109159 2.0440301,3.1574734 1.9878042,2.9040309 2.0137873,2.6838128 2.1811872,2.6493106 2.348587,2.6152343 2.4652983,2.8060616 2.5215242,3.05993 Z m 1.3068261,0 C 3.7721244,3.3133725 3.8079045,3.5357203 3.9655074,3.5676668 4.1231103,3.6000393 4.2496185,3.4109159 4.3058444,3.1574734 4.3620703,2.9040309 4.3360871,2.6838128 4.1686873,2.6493106 4.0012875,2.6152343 3.8845762,2.8060616 3.8283503,3.05993 Z"
     fill="#4d8bd1"
     id="path24342"
     style="stroke-width:0.425954" /></svg>

<svg xmlns="http://www.w3.org/2000/svg" xml:space="preserve" width="24" height="24" viewBox="0 0 6.35 6.35"><defs><radialGradient id="b" cx="24" cy="24" r="15" gradientTransform="matrix(.1323 0 0 .12348 0 .212)" gradientUnits="userSpaceOnUse"><stop offset="0" stop-color="#f2bc4e"/><stop offset="1" stop-color="#f1b741"/></radialGradient><radialGradient id="a" cx="0" cy="0" r="1" fx="0" fy="0" gradientTransform="matrix(0 16.50001 -16.50001 0 9 .75)" gradientUnits="userSpaceOnUse" spreadMethod="pad"><stop offset="0" style="stop-opacity:1;stop-color:#a3c3ee"/><stop offset="1" style="stop-opacity:1;stop-color:#5f8fd3"/></radialGradient></defs><path d="M7.195.836c.09 0 .176-.012.258-.035a23.86 23.86 0 0 1 3.231.008 10.26 10.26 0 0 1 2.836.636c1.519.625 2.558 1.711 3.121 3.254.316.93.507 1.887.566 2.867a21.227 21.227 0 0 1-.086 3.696 8.976 8.976 0 0 1-.672 2.488c-.637 1.383-1.672 2.336-3.101 2.859a11.693 11.693 0 0 1-3.575.618 15.998 15.998 0 0 1-4.089-.309c-2.481-.551-4.016-2.066-4.594-4.543a14.244 14.244 0 0 1-.336-3.383c-.027-1.215.101-2.41.387-3.59.609-2.312 2.078-3.746 4.406-4.3A10.27 10.27 0 0 1 7.195.836Z" style="fill:url(#a);fill-rule:evenodd;stroke:none" transform="scale(.35277)"/><ellipse cx="3.175" cy="3.175" fill="url(#b)" rx="1.985" ry="1.852" style="fill:url(#b);stroke-width:.425954"/><path fill="#f2f2f2" d="M2.608 2.9c.085.398.032.748-.205.798-.238.05-.427-.247-.511-.645-.084-.398-.045-.744.206-.798.251-.054.426.247.51.645Z" style="stroke-width:.425954"/><path fill="#ba6616" d="M4.762 3.836c-.926 1.237-2.778.905-3.175-.132.926.661 2.25.597 3.175.132Z" style="stroke-width:.425954"/><path fill="#f2f2f2" d="M3.741 2.9c-.084.398-.03.748.206.798.237.05.427-.247.51-.645.085-.398.046-.744-.205-.798-.252-.054-.426.247-.51.645Z" style="stroke-width:.425954"/><path fill="#4d8bd1" d="M2.522 3.06c.056.253.02.476-.138.508-.157.032-.284-.157-.34-.41-.056-.254-.03-.474.137-.509.168-.034.284.157.34.41Zm1.306 0c-.056.253-.02.476.138.508.157.032.284-.157.34-.41.056-.254.03-.474-.137-.509-.168-.034-.284.157-.34.41Z" style="stroke-width:.425954"/></svg>
